src/extras-openmoji/climate-environment/E2DA.svg

<?xml version="1.0" encoding="UTF-8"?>
<svg id="emoji" xmlns="http://www.w3.org/2000/svg" viewBox="0 0 72 72">
  <g id="grid">
    <path d="m68,4v64H4V4h64m4-4H0v72h72V0Z" fill="#b3b3b3"/>
    <path d="m12.923,10.9583h46.1539c1.0621,0,1.9231.861,1.9231,1.9231h0v46.1538c0,1.0621-.861,1.9231-1.9231,1.9231H12.9231c-1.0621,0-1.9231-.861-1.9231-1.9231h0V12.8813c0-1.062.861-1.923,1.923-1.923h0Z" fill="none" stroke="#00a5ff" stroke-miterlimit="10" stroke-width=".1"/>
    <rect x="16" y="4" width="40" height="64" rx="2.2537" ry="2.2537" fill="none" stroke="#00a5ff" stroke-miterlimit="10" stroke-width=".1"/>
    <rect x="4" y="16" width="64" height="40" rx="2.2537" ry="2.2537" fill="none" stroke="#00a5ff" stroke-miterlimit="10" stroke-width=".1"/>
    <circle cx="36" cy="36" r="29" fill="none" stroke="#00a5ff" stroke-miterlimit="10" stroke-width=".1"/>
  </g>
  <g id="color">
    <path d="m30.9846,21.0072l-.0432-12.7511s5.1319-2.9552,10.0704.0743l.0193,12.6768h-10.0465Z" fill="#fff"/>
    <polygon points="39 30 44 25 44 22 28 22 28 25 33 30 39 30" fill="#9b9b9a"/>
    <rect x="33" y="20" width="6" height="10" fill="#d0cfce"/>
    <path d="m39,30l7,8v19c0,5.5228-4.4772,10-10,10s-10-4.4772-10-10v-19l7-8h6Z" fill="#9b9b9a"/>
    <path d="m36,67c-5.5228,0-10-4.4772-10-10v-19l7-8h6l3,8v19c0,5.5228-2.6863,10-6,10" fill="#d0cfce"/>
  </g>
  <g id="line">
    <path d="m46,57c0,5.5228-4.4772,10-10,10s-10-4.4772-10-10" fill="none" stroke="#000" stroke-linecap="round" stroke-linejoin="round" stroke-width="2"/>
    <polyline points="46 57 46 38 26 38 26 57" fill="none" stroke="#000" stroke-linecap="round" stroke-linejoin="round" stroke-width="2"/>
    <rect x="33" y="20" width="6" height="10" fill="none" stroke="#000" stroke-linecap="round" stroke-linejoin="round" stroke-width="2"/>
    <polyline points="26 38 33 30 28 25 28 22 32.972 22" fill="none" stroke="#000" stroke-linecap="round" stroke-linejoin="round" stroke-width="2"/>
    <polyline points="46 38 39 30 44 25 44 22 39.27 22" fill="none" stroke="#000" stroke-linecap="round" stroke-linejoin="round" stroke-width="2"/>
    <line x1="36" y1="15" x2="36" y2="5" fill="none" stroke="#000" stroke-linecap="round" stroke-linejoin="round" stroke-width="2"/>
    <line x1="30" y1="7" x2="30" y2="18" fill="none" stroke="#000" stroke-linecap="round" stroke-linejoin="round" stroke-width="2"/>
    <line x1="42" y1="7" x2="42" y2="18" fill="none" stroke="#000" stroke-linecap="round" stroke-linejoin="round" stroke-width="2"/>
    <g>
      <path d="m37.0062,51.8749c0,.4197-.3404.7599-.7601.7599-.4197,0-.7599-.3404-.7599-.7601,0-.4197.3404-.7599.7601-.7599.1334,0,.2644.0351.3799.1018.2352.1358.38.3867.38.6583Z" stroke="#000" stroke-linecap="round" stroke-linejoin="round"/>
      <path d="m33.2062,51.8749c-.0004-1.0863.5791-2.0902,1.52-2.6331l-1.52-2.6332c-1.8818,1.0859-3.0408,3.0937-3.04,5.2663h3.04Z" stroke="#000" stroke-linecap="round" stroke-linejoin="round"/>
      <path d="m37.7665,54.5081c-.9409.5424-2.0996.5424-3.0405,0l-1.52,2.6331c1.8818,1.0849,4.1992,1.0849,6.081,0l-1.5205-2.6331Z" stroke="#000" stroke-linecap="round" stroke-linejoin="round"/>
      <path d="m37.7665,49.2418c.9409.5429,1.5204,1.5468,1.52,2.6331h3.04c.0009-2.1725-1.1578-4.1803-3.0394-5.2663l-1.5206,2.6332Z" stroke="#000" stroke-linecap="round" stroke-linejoin="round"/>
    </g>
  </g>
</svg>

<svg id="emoji" viewBox="0 0 72 72" xmlns="http://www.w3.org/2000/svg">
  <g id="grid">
    <path fill="#b3b3b3" d="M68,4V68H4V4H68m4-4H0V72H72V0Z"/>
    <path fill="none" stroke="#00a5ff" stroke-miterlimit="10" stroke-width="0.1" d="M12.923,10.9583H59.0769A1.9231,1.9231,0,0,1,61,12.8814V59.0352a1.9231,1.9231,0,0,1-1.9231,1.9231H12.9231A1.9231,1.9231,0,0,1,11,59.0352V12.8813A1.923,1.923,0,0,1,12.923,10.9583Z"/>
    <rect x="16" y="4" rx="2.2537" width="40" height="64" fill="none" stroke="#00a5ff" stroke-miterlimit="10" stroke-width="0.1"/>
    <rect x="16" y="4" rx="2.2537" width="40" height="64" transform="translate(72) rotate(90)" fill="none" stroke="#00a5ff" stroke-miterlimit="10" stroke-width="0.1"/>
    <circle cx="36" cy="36" r="29" fill="none" stroke="#00a5ff" stroke-miterlimit="10" stroke-width="0.1"/>
  </g>
  <g id="color">
    <polygon fill="#9b9b9a" points="39 30 44 25 44 22 28 22 28 25 33 30 39 30"/>
    <rect x="33" y="20" width="6" height="10" fill="#d0cfce"/>
    <path fill="#9b9b9a" d="M39,30l7,8V57a10,10,0,0,1-20,0V38l7-8Z"/>
    <path fill="#d0cfce" d="M36,67A10,10,0,0,1,26,57V38l7-8h6l3,8V57c0,5.5228-2.6863,10-6,10"/>
  </g>
  <g id="line">
    <path fill="none" stroke="#000" stroke-linecap="round" stroke-linejoin="round" stroke-width="2" d="M46,57a10,10,0,0,1-20,0"/>
    <polyline fill="none" stroke="#000" stroke-linecap="round" stroke-linejoin="round" stroke-width="2" points="46 57 46 38 26 38 26 57"/>
    <rect x="33" y="20" width="6" height="10" fill="none" stroke="#000" stroke-linecap="round" stroke-linejoin="round" stroke-width="2"/>
    <polyline fill="none" stroke="#000" stroke-linecap="round" stroke-linejoin="round" stroke-width="2" points="26 38 33 30 28 25 28 22 32.972 22"/>
    <polyline fill="none" stroke="#000" stroke-linecap="round" stroke-linejoin="round" stroke-width="2" points="46 38 39 30 44 25 44 22 39.27 22"/>
    <line x1="36" x2="36" y1="15" y2="5" fill="none" stroke="#000" stroke-linecap="round" stroke-linejoin="round" stroke-width="2"/>
    <line x1="30" x2="30" y1="7" y2="18" fill="none" stroke="#000" stroke-linecap="round" stroke-linejoin="round" stroke-width="2"/>
    <line x1="42" x2="42" y1="7" y2="18" fill="none" stroke="#000" stroke-linecap="round" stroke-linejoin="round" stroke-width="2"/>
    <g>
      <path stroke="#000" stroke-linecap="round" stroke-linejoin="round" d="M37.0062,51.8749a.76.76,0,1,1-.38-.6583A.76.76,0,0,1,37.0062,51.8749Z"/>
      <path stroke="#000" stroke-linecap="round" stroke-linejoin="round" d="M33.2062,51.8749a3.0387,3.0387,0,0,1,1.52-2.6331l-1.52-2.6332a6.0777,6.0777,0,0,0-3.04,5.2663Z"/>
      <path stroke="#000" stroke-linecap="round" stroke-linejoin="round" d="M37.7665,54.5081a3.0441,3.0441,0,0,1-3.0405,0l-1.52,2.6331a6.0875,6.0875,0,0,0,6.081,0Z"/>
      <path stroke="#000" stroke-linecap="round" stroke-linejoin="round" d="M37.7665,49.2418a3.0386,3.0386,0,0,1,1.52,2.6331h3.04a6.0776,6.0776,0,0,0-3.0394-5.2663Z"/>
    </g>
  </g>
</svg>
